public/icons/menu.svg

<svg width="24" height="24" viewBox="0 0 24 24" fill="none" xmlns="http://www.w3.org/2000/svg">
<path fill-rule="evenodd" clip-rule="evenodd" d="M21 7C21 7.55228 20.5523 8 20 8H4C3.44772 8 3 7.55228 3 7C3 6.44772 3.44772 6 4 6H20C20.5523 6 21 6.44772 21 7ZM21 12C21 12.5523 20.5523 13 20 13H4C3.44772 13 3 12.5523 3 12C3 11.4477 3.44772 11 4 11H20C20.5523 11 21 11.4477 21 12ZM21 17C21 17.5523 20.5523 18 20 18H4C3.44772 18 3 17.5523 3 17C3 16.4477 3.44772 16 4 16H20C20.5523 16 21 16.4477 21 17Z" fill="black"/>
</svg>

<svg width="24" height="24" fill="none" xmlns="http://www.w3.org/2000/svg"><path fill-rule="evenodd" clip-rule="evenodd" d="M21 7a1 1 0 0 1-1 1H4a1 1 0 0 1 0-2h16a1 1 0 0 1 1 1Zm0 5a1 1 0 0 1-1 1H4a1 1 0 1 1 0-2h16a1 1 0 0 1 1 1Zm0 5a1 1 0 0 1-1 1H4a1 1 0 1 1 0-2h16a1 1 0 0 1 1 1Z" fill="#000"/></svg>
